credit-card-lock-outline.svg

<svg fill="currentColor" viewBox="0 0 24 24"><path d="M21.8 15v-1.5c0-1.4-1.4-2.5-2.8-2.5s-2.8 1.1-2.8 2.5V15c-.6 0-1.2.6-1.2 1.2v3.5c0 .7.6 1.3 1.2 1.3h5.5c.7 0 1.3-.6 1.3-1.2v-3.5c0-.7-.6-1.3-1.2-1.3m-1.3 0h-3v-1.5c0-.8.7-1.3 1.5-1.3s1.5.5 1.5 1.3zM13 19.7V18H4v-6h10.5c.68-1.72 2.46-3 4.5-3 1.13 0 2.17.4 3 1.04V6a2 2 0 0 0-2-2H4c-1.11 0-2 .89-2 2v12a2 2 0 0 0 2 2h9.03c-.03-.1-.03-.2-.03-.3M4 6h16v2H4z"/></svg>

<svg  viewBox="0 0 24 24" fill="currentColor"><path  d="M21.8 15V13.5C21.8 12.1 20.4 11 19 11S16.2 12.1 16.2 13.5V15C15.6 15 15 15.6 15 16.2V19.7C15 20.4 15.6 21 16.2 21H21.7C22.4 21 23 20.4 23 19.8V16.3C23 15.6 22.4 15 21.8 15M20.5 15H17.5V13.5C17.5 12.7 18.2 12.2 19 12.2S20.5 12.7 20.5 13.5V15M13 19.7V18H4V12H14.5C15.18 10.28 16.96 9 19 9C20.13 9 21.17 9.4 22 10.04V6C22 4.89 21.1 4 20 4H4C2.89 4 2 4.89 2 6V18C2 19.11 2.9 20 4 20H13.03C13 19.9 13 19.8 13 19.7M4 6H20V8H4V6Z"/></svg>
